X:2
T:Earl Of Hyndford
C:
G:fiddle reel, early 1780s
M:C
L:1/8
Q:1/4=120
S:The Gow Collection of Scottish Dance Music
%%MIDI gchord cccccccc
K:Cmin
G,| "Cm"C2 EG cdec| "Gm"BGFE "Bb"DB,B,D| \
    "Cm"C2 EG cdec| "Bb"BGFD "Cm"ECCG,| 
    "Cm"C2 EG cdec| "Bb"BGFE DB,B,D| \
    "Ab"EC "Bb"FD "Gm"GE "Fm"AF| "Gm"GE "Bb"FD "Cm"ECC || G|
    "Cm"cGEe cgec| "Bb"Bb "Gm"fg "Bb"dfBd| \
    "Cm"ecge dBGc| "Eb"BEDG "Cm"ECCG| 
    "Cm"cGEe cgec| "Gm"BdGB "Bb"DFBD| \
    "Ab"EC "Bb"FD "Gm"GE "Fm"AF| "Gm"GE "Bb"FD "Cm"ECC |]
